!!!ONR: No. 17
!! From Harold Courlander, "Haiti Singing"
!! Chapel Hill: University of North Carolina Press, 1939
!! Copyright University of North Carolina Press
!!!ENC: D. Huron
**kern
*clefG2
*k[c#]
*M2/4
=1-
8r
16a
8a
16a
8a
=2
8dd
8dd
[4dd
=3
8dd]
16cc#
8ee
16cc#
8cc#
=4
8ee
8ee
[4ee
=5
8ee]
8a
8cc#
8ee
=6
8dd
8dd
[4cc#
=7
8cc#]
8a
8a
8a
=8
8dd
8dd
[4dd
=9
4dd]
4r
==
*-
